packages/astro-components-stencil/src/icons/dock.svg

<svg xmlns="http://www.w3.org/2000/svg" viewBox="0 0 24 24"><g xmlns="http://www.w3.org/2000/svg" id="dock" fill-rule="nonzero">
            <path d="M9 23h6c.55 0 1-.45 1-1s-.45-1-1-1H9c-.55 0-1 .45-1 1s.45 1 1 1zm7-21.99L8 1c-1.1 0-2 .9-2 2v14c0 1.1.9 2 2 2h8c1.1 0 2-.9 2-2V3c0-1.1-.9-1.99-2-1.99zM16 15H8V5h8v10z"/>
        </g></svg>

<svg width="24" height="24" viewBox="0 0 24 24" fill="none" xmlns="http://www.w3.org/2000/svg">
<path fill-rule="evenodd" clip-rule="evenodd" d="M16 1.01L8 1C6.9 1 6 1.9 6 3V17C6 18.1 6.9 19 8 19H16C17.1 19 18 18.1 18 17V3C18 1.9 17.1 1.01 16 1.01ZM9 23H15C15.55 23 16 22.55 16 22C16 21.45 15.55 21 15 21H9C8.45 21 8 21.45 8 22C8 22.55 8.45 23 9 23ZM8 15H16V5H8V15Z" fill="black"/>
</svg>
